X:1
T:The Strife Is O'er, the Battle Done
T:The Strife Is O'er, the Battle Done
T:Copyright © 
T:Copyright © 
Z:Copyright ©
%%score ( 1 2 ) ( 3 4 5 )
L:1/8
M:3/4
K:D
V:1 treble nm="SOPRANO ALTO" snm="S. A."
V:2 treble 
V:3 bass nm="TENOR BASS" snm="T. B."
V:4 bass 
V:5 bass 
V:1
 z2 F2 F2 | G6 | F2 A2 A2 | B6 | A2 A2 d2 | c6 | d6 |:"^1""^2""^3""^4""^5" A2 A2 A2 | B4 A2 | %9
w: Al- le-|lu-|ia, al- le-|lu-|ia, al- le-|lu-|ia!|The strife is|o'er, the|
w: |||||||The powers of|death have|
w: |||||||The three sad|days are|
w: |||||||He closed the|yawn- ing|
w: |||||||Lord, by the|stripes which|
 (A2 G2) F2 | A6 |1 F2 F2 F2 | F4 F2 | (F2 E2) D2 | E6 ||"^Page 2" A2 A2 A2 | B4 A2 | (A2 G2) F2 | %18
w: bat- * tle|done;|the vic- to-|ry of|life * is|won;|the song of|tri- umph|has * be-|
w: done * their|worst,|but Christ their|le- gions|has * dis-|persed.|Let shouts of|ho- ly|joy * out-|
w: quick- * ly|sped;|he ris- es|glo- rious|from * the|dead.|All glo- ry|to our|ris- * en|
w: gates * of|hell;|the bars from|heaven's high|por- * tals|fell.|Let hymns of|praise his|tri- * umph|
w: woun- * ded|thee,|from death's dread|sting thy|ser- * vants|free,|that we may|live and|sing * to|
 A6 | z2"^The Strife Is O'er, the Battle Done" A2 d2 | c6 | d6 :|"^Final ending" z2 F2 F2 | G6 | %24
w: gun.|Al- le-|lu-|ia!|Al- le-|lu-|
w: burst.|Al- le-|lu-|ia!|||
w: Head.|Al- le-|lu-|ia!|||
w: tell.|Al- le-|lu-|ia!|||
w: thee.|Al- le-|lu-|ia!|||
 F2 A2 A2 | B6 | A2 A2 d2 | c6 | d6 |] %29
w: ia, al- le-|lu-|ia, al- le-|lu-|ia!|
w: |||||
w: |||||
w: |||||
w: |||||
V:2
 x2 D2 D2 | D6 | D2 D2 F2 | F6 | F2 A2 A2 | A6 | F6 |: F2 F2 F2 | G4 F2 | E4 D2 | E6 |1 D2 D2 D2 | %12
 D4 C2 | (D2 B,2) B,2 | C6 || D2 F2 F2 | G4 F2 | E4 D2 | E6 | x2 D2 F2 | E6 | F6 :| x2 D2 D2 | D6 | %24
 D2 D2 F2 | F6 | F2 A2 A2 | A6 | F6 |] %29
V:3
 D,,2 x4 | x6 | x6 | x6 | x6 | x6 | x6 |: x6 | x6 | x6 | x6 |1 %11
"^Copyright 2008 Hymnary.org. You may use this score in personal and corporate worship settings. Commercial use and republication are prohibited without written consent." x6 | %12
 x6 | x6 | x6 || x6 | x6 | x6 | x6 | x6 | x6 | x6 :| D,,2 x4 | x6 | x6 | x6 | x6 | x6 | x6 |] %29
V:4
 z2 A,2 A,2 | B,6 | A,2 F,2 A,2 | D6 | C2 D2 F2 | E6 | D6 |: D2 D2 D2 | D4 D2 | C4 D2 | C6 |1 %11
 A,2 A,2 A,2 | B,4 A,2 | (A,2 G,2) F,2 | A,6 || A,2 A,2 D2 | D4 D2 | C4 D2 | C6 | z2 A,2 A,2 | %20
 A,6 | A,6 :| z2 A,2 A,2 | B,6 | A,2 F,2 A,2 | D6 | C2 D2 F2 | E6 | D6 |] %29
V:5
 x2 D,2 D,2 | G,,6 | D,2 D,2 D,2 | B,,6 | F,2 F,2 B,,2 | A,6 | D,6 |: D,2 D,2 D,2 | G,4 D,2 | %9
 A,4 B,2 | A,6 |1 D,2 D,2 D,2 | B,,4 F,2 | (D,2 E,2) B,,2 | A,,6 || F,2 D,2 D,2 | G,4 D,2 | %17
 A,4 B,2 | A,6 | x2 F,2 D,2 | x6 | D,6 :| x2 D,2 D,2 | G,,6 | D,2 D,2 D,2 | B,,6 | F,2 F,2 D,2 | %27
 A,6 | D,6 |] %29

